img/Decore.svg

<svg fill="none" height="724" viewBox="0 0 704 724" width="704" xmlns="http://www.w3.org/2000/svg"><path d="m22.3069 222c-40.4-68.8-16.8333-208.6667 0-270l679.5001-101 64.5 271.5-38.5 601c-78.667 1-254.1-6.5-326.5-44.5-90.5-47.5-49.5-124-124.5-164s-32-145.5-58-185.5-146.0001-21.5-196.5001-107.5z" fill="#fff1da"/></svg>

<svg width="704" height="724" viewBox="0 0 704 724" fill="none" xmlns="http://www.w3.org/2000/svg">
<path d="M22.3069 222C-18.0931 153.2 5.4736 13.3333 22.3069 -48L701.807 -149L766.307 122.5L727.807 723.5C649.14 724.5 473.707 717 401.307 679C310.807 631.5 351.807 555 276.807 515C201.807 475 244.807 369.5 218.807 329.5C192.807 289.5 72.8069 308 22.3069 222Z" fill="#FFF1DA"/>
</svg>
